X: 152
M: 6/8
L: 1/8
K: Gm
!segno!d2d dcd | B2B BAB | cde dcB | A2A ABc |\
d2d dcd | B2B cde | dcB AGF | HG3 z |]
[| "2.f."DGA |\
[| Gba |\
"2.f."g^fg aba | g^fg aba | gab ag=f | =e3 ede |\
f2f f=ef | g2g gfg | aba e^fg | ^f2f fBc !segno!|]

